X: 2297
T: Bäcken
R: waltz
M: 3/4
K: Gmajor
D|G/A/B/c/ d2 g2|fa/f/ g2 dB|c>d eg/e/ dc/B/|A>B cd/c/ BA|
G/A/B/c/ d2 g2|fa/f/ g2 dB|c>d eg/e/ dc/B/|AF/A/ G3:|
|:F|E>F G/F/E/F/ GF|E>F GB A2|A>G FG AB|c>B ce d2|
d>g fg dB|c>d ec A2|A>B cA FD|DF G3:|

